!!!OTL: Gaoliang kaihua hongyouhong
!!!ARE: Asia, China,ÿNingxia, Yanchi
!! I, 185
!!!SCT: C1427
!!!YEM: Copyright 1995, estate of Helmut Schaffrath.
**kern
*ICvox
*Ivox
*M2/4
*k[f#c#g#]
*A:
{8ee
8f#
8e
16e
16e
=1
8.b
16cc#
4ee
=2
8b
16b
16a
8a
8b
=3
2ee}
=4
{8ee
8f#
8e
16e
16e
=5
8.b
16cc#
4ee
=6
8cc#
16cc#
16b
8a
16b
16cc#
=7
2a}
==
!!!AGN: Xiaodiao, Xintianyou. Biaoda aiqing
!!!ONB: ESAC (Essen Associative Code) Database: HUANG
!!!AMT: simple duple
!!!AIN: vox
!!!EED: Helmut Schaffrath
!!!EEV: 1.0
*-
